X:179
T:Portsmouth
R:hornpipe
M:4/4
L:1/8
K:G
D2 |: G2GA BAGF | E4  e4 | d2B2 cBAG |A2F2  D4 |
   | G2GA  BAGF | E4 e4 | d2B2  cBAB |1 G6 D2:|2 G6 d2|
   |: g2ga bagf| g2d2 B2d2|d2d2 dcB2|A6 D2 |
   | G2 GA BAGF | E4  e4 | d2B2 cBAB |1 G6 d2:|2 G6 D2|
